X:3
T:Bout d'E
G:Kazimodal
R:Bourr\'ee 2 temps
C:Ronan Keryell, arrangement http://kazimodal.trad.org
Q:C2=145
P:C4
M:4/4
%%MIDI gchord c2ffccf2
%%MIDI chordprog 105
%%MIDI chordvol 80
%%MIDI bassprog 36
%%MIDI bassvol 127
%%MIDI program 73
K:Em
P:I
B/2
P:C
|: "Em"E>G AE "G"B2-B>G |1 "Am"A>B ce "Bm"BA FG :|2 \
	"Am"AA- AA z"Bm"B B>B ||
|: "Em"E>G AE "G"B2-B>G |1 "Am"A>B ce "Bm"BA FG :|2 \
	"Am"A>B GA "Bm"F4 ||
|: "G"B>A GB "C"c>B Ae | "D"d>c BA "Bm"B>A GE |\
	"G"B A2 G2 "Am"A A2 |1 "C"B>G AE "D"F>F F2 :|2 "C"B>G AE "D"F>F F>B ||
